X: 7524
T: Cobbler, The
R: jig
M: 6/8
K: Dmajor
|:"D"DFA B2A|def geg|fdf ecA|"G"BdB "A"AFE|
"D"DFA B2A|def geg|fdf ecA|1 "G"B2c "D"d3:|2 "G"B2c "D"d2e||
|:"D"fad fad|faa agf|"C"eg=c egc|egg gfe|
"D"fef "G"~g3|"D"agf efg|fed BAG|1 Adc d2e:|2 Adc d3||

